X:15729
T:Sonderh\o{}ning
R:Sonderh\o{}ning
O:Denmark
N:or maybe it comes from Sk\aa{}ne  Sounds like a sonderhoning
M:4/4
L:1/4
K:G
gf/e/ dc | BdG>G | Ggfe | e2d2 | \
ccc2 | BBB2 | BABG | d3c ||
BBBA/B/ | ccc2 | cB/A/AB/c/ | (d3 d/)c/ | \
BBBA/G/ | e2e2 | d/e/f/g af | g2g2 ||
